X:1
T:Title
%%score { ( 1 3 ) | ( 2 4 ) }
L:1/8
M:3/4
K:A
V:1 treble nm="Grand Piano"
V:3 treble 
V:2 bass 
V:4 bass 
V:1
 z2 z2[Q:1/4=100] [Ec]>[Ec] | [Ec]3 [CE] [DF][CE] | [CE] [CA]3 A>A | A3 A c>B |[M:2/4] B4 | %5
[M:1/4] [Ec]>[Ec] |[M:3/4] [Ec]3 [CE] [DF][CE] | [CE] [EA]3 [Fd]>[Fd] | c3 A GB |[M:2/4] [CA]4 | %10
[M:1/4] G>A |[M:3/4] B3 B AB | [Ec]4 G>A | B3 B AB |[M:2/4] [Ec]4 |[M:1/4] [Ec]>[Ec] | %16
[M:3/4] [Ec]3 [Ec] [EB][EA] | [Fd]4 [Ec]>[EA] | [Ge]4 z D |[M:2/4] [A,CA]4 |] %20
V:2
 z2 z2 [A,,A,]>[A,,A,] | [A,,A,]3 [A,,A,] [A,,A,][A,,A,] | [A,,A,] [A,,A,]3 [F,B,^D]>[F,B,D] | %3
 [F,B,^D]3 [F,B,D] [E,A,E]>[E,G,=D] |[M:2/4] [E,G,D]4 |[M:1/4] [A,,A,]>[A,,A,] | %6
[M:3/4] [A,,A,]3 [A,,A,] [A,,A,][A,,A,] | [A,,A,] [C,A,]3 [D,A,]>[D,A,] | %8
 [E,A,E]3 [E,CE] [E,DE][E,G,D] |[M:2/4] [A,,A,]4 |[M:1/4] [E,B,E]>[E,CE] | %11
[M:3/4] [E,DE]3 [E,DE] [E,CE][E,G,E] | [A,,A,]4 [E,B,D]>[E,A,C] | [E,G,D]3 [E,G,D] [E,A,C][E,G,E] | %14
[M:2/4] [A,,A,]4 |[M:1/4] [A,,A,]>[A,,A,] |[M:3/4] [A,,A,]3 [A,,A,] [B,,G,][C,A,] | %17
 [D,A,]4 [E,A,]>[E,C] | [E,D]4 [DE]B, |[M:2/4] A,,4 |] %20
V:3
 x6 | x6 | x6 | x6 |[M:2/4] x4 |[M:1/4] x2 |[M:3/4] x6 | x6 | x6 |[M:2/4] x4 |[M:1/4] x2 | %11
[M:3/4] x6 | x6 | x6 |[M:2/4] x4 |[M:1/4] x2 |[M:3/4] x6 | x6 | z2 z2 G2 |[M:2/4] x4 |] %20
V:4
 x6 | x6 | x6 | x6 |[M:2/4] x4 |[M:1/4] x2 |[M:3/4] x6 | x6 | x6 |[M:2/4] x4 |[M:1/4] x2 | %11
[M:3/4] x6 | x6 | x6 |[M:2/4] x4 |[M:1/4] x2 |[M:3/4] x6 | x6 | z2 z2 E,2 |[M:2/4] x4 |] %20

